!!!COM: Richard Strauss
!!!CNT: Deutscher
!!!TXO: Deutsche 
!!!OTL: "Hoffen und wieder verzagen"
!!!OPS: Opus 19
!!!ONM: No. 5
!!!LYR: A. Fr. Graf v. Schack
!!!ENC: Brian Bice
!!!YOR: Lieder, Complete Edition, vol. 1
!!!ODT: 1888/
!!NB: Vocal melody and text only encoded.
**kern	**silbe
*clefG2	*
*k[f#c#g#]	*
*M6/8	*
=1	=1
{(8.cc#	{Hof-
16b)	|
8a	-fen
16r	.
16g#	und
8b	wie-
16a	-der
16g#	ver-
=2	=2
4f#	-za-
8d}	-gen,}
8r	.
{8f#	{har-
8g#	-rend
=3	=3
8.a	lau-
16a	-schen
8a	an
8b	ih-
8b	-rem
8b	Bal-
=4	=4
8.ee}	-kon,}
{16dd	{ob
(16cc#	nicht,
16b)	|
16r	.
16a	om
(16a#	Win-
16b)	|
16an	-de
16gn	ge-
=5	=5
4gn	-tra-
8f#}	-gen,}
16r	.
{16f#	{zu
4g#	mir
=6	=6
8.a#	drin-
16a#	-ge
8a#	von
4cc#	ihr
8cc#	ein
=7	=7
[4.ee	Ton,
8ee]}	|}
8r	.
8r	.
=8	=8
16r	.
{(16dd	{al-
16cc#)	|
16b	-so
16a	reih'n
16g#	seit
8.dd	Mon-
16f#	-den
8f#	schon
=9	=9
(8.a	Ta-
16g#)	|
8f#	-ge
16r	.
16a	sich
8.g#	mir
16cc#	zu
=10	=10
4cc#	Ta-
8f#}	-gen.}
4r	.
{8f#	{Spa2t,
=11	=11
16r	.
16f#	wenn
8.f#	stumm
16f#	und
(8.a	stum-
16g#)	|
8f#	-mer
=12	=12
4cc#	Nacht
8cc#	sich
8cc#	la-
8g#	-gert
16r	.
16g#	im
=13	=13
8.dd#	o2-
16cc#	-den
8b#	Re-
4cc#}	-vier,}
{[8cc#	{sen-
=14	=14
8cc#]	|
16cc#	-ken
16cc#	zu
16cc#	kur-
16cc#	-zem
4ee	Schlum-
8ddn}	-mer}
=15	=15
8r	.
{8cc#	{sich
8cc#	er-
8ggn	-mu2-
8ff#	-det
8ee	die
=16	=16
4.ee	Wim-
4.bb	-pern
=17	=17
8e}	mir;}
8r	.
{16ddn	{wie-
32ddn	-der
32ddn	em-
8cc#	-por
16r	.
16dd#	aus
16dd#	Tra2u-
32cc#	-men
32cc#	von
=18	=18
8.ff#	ihr,
[16f#	fahr'
24f#]	|
24f#	ich
24g#	zu
4a	neu-
8cc#	-em
=19	=19
4cc#	Kum-
8g#}	-mer.}
4r	.
8r	.
=20	=20
8r	.
{8cc#	{A-
16cc#	-ber,
16cc#	o
8f#	Him-
8f#	-mel,
16r	.
16cc#	ich
=21	=21
4dd#	fle-
8cc#}	-he:}
8r	.
{16.cc#	{rau-
32cc#	-be
8cc#	mir
=22	=22
4cc#	nicht
8cc#	mein
8.aan	teu-
16ff#	-er-
8ff#	-stes
=23	=23
[4.cc#	Gut,
8cc#]}	|}
{8.cc#	{dies
16cc#	be-
=24	=24
(4cc##	-glu2k-
[8dd#	|
8dd#])	|
8cc#	-ken-
8b	-de
=25	=25
4.b	We-
8a}	-he,}
{8a	{das
16a	ich
16a	ge-
=26	=26
4ccn	-na2hrt
16a	mit
16a	des
(4g#	Her-
24b	|
24a)	|
24g#	-zens
=27	=27
4.g#}	Blut:}
8r	.
{8.cc#	{hoch
16cc#	und
=28	=28
8.ff#	ho2-
16ee#	-her
8dd#	lass
8.gg#	lo-
16cc#	-dern
8b	die
=29	=29
[4.a#	Glut,
8a#]}	|}
{8a#	{drin
8a#	ich
=30	=30
(4g#	se-
[8cc##	|
16cc##]	|
16dd#	|
16cc#	|
16b)	|
16a#	-lig
16g#	ver-
=31	=31
(4.cc#	-ge-
8g#	|
8.b	|
16a#	|
=32	=32
4.g#)	|
4f#}	-he.}
8r	.
*-	*-
